X:1
T:Tommy don't go
N:From the playing of Oklahoma fiddler Mack Cummings,
N:recorded in the field in 1976 by Jim Renner.
M:3/4
L:1/8
R:Waltz
D: https://www.slippery-hill.com/content/tommy-dont-go-0
Z:Transcribed by Andrew Kuntz
K:G
d2|:G2B2d2|G4B2 |G2B2d2  |+slide+[A4A4][A2A2] |f4fg|
f2e2d2|A2c2B2|G4B2:||:[G2B2]|b3d b[db]|[d2b2]a2 g-f|
e2a2a2|+slide+[e4e4][e2e2]|f4 fg|f2e2d2|A2c2B2|G4:|
P:Substitution
"*"{B}c4B2|G4||

